**harm	**harte	**timestamp	**phrase	**leadinstrument	**kern
*M4/4	*M4/4	*	*	*	*
*e:	*e:	*	*	*	*e:
1r;	N	0	.	r	1r;
=1	=1	=1	=1	=1	=1
*>A_intro	*>A_intro	*>A_intro	*>A_intro	*>A_intro	*>A_intro
1i	E:min	0.859	newline	guitar	1E 1g 1b
=2	=2	=2	=2	=2	=2
1-III	G:maj	2.908	.	guitar	1G- 1b- 1dd-
=3	=3	=3	=3	=3	=3
1iv	A:min	4.957	.	guitar	1A 1cc 1ee
=4	=4	=4	=4	=4	=4
2-VI	C:maj	7.007	.	guitar	2C- 2e- 2g-
2V7	B:7	8.031	.	guitar	2B 2dd# 2ff# 2aa
=5	=5	=5	=5	=5	=5
1i	E:min	9.056	newline	guitar	1E 1g 1b
=6	=6	=6	=6	=6	=6
1-III	G:maj	11.15	.	guitar	1G- 1b- 1dd-
=7	=7	=7	=7	=7	=7
1iv	A:min	13.245	.	guitar	1A 1cc 1ee
=8	=8	=8	=8	=8	=8
2-VI	C:maj	15.339	.	guitar	2C- 2e- 2g-
2V7	B:7	16.387	.	guitar	2B 2dd# 2ff# 2aa
=9	=9	=9	=9	=9	=9
*>B_verse	*>B_verse	*>B_verse	*>B_verse	*>B_verse	*>B_verse
1i	E:min	17.434	newline	voice	1E 1g 1b
=10	=10	=10	=10	=10	=10
1-III	G:maj	19.404	.	voice	1G- 1b- 1dd-
=11	=11	=11	=11	=11	=11
1iv	A:min	21.375	.	voice	1A 1cc 1ee
=12	=12	=12	=12	=12	=12
2-VI	C:maj	23.345	.	voice	2C- 2e- 2g-
2V	B:maj	24.33	.	voice	2B 2dd# 2ff#
=13	=13	=13	=13	=13	=13
1i	E:min	25.315	newline	guitar	1E 1g 1b
=14	=14	=14	=14	=14	=14
1-III	G:maj	27.369	.	guitar	1G- 1b- 1dd-
=15	=15	=15	=15	=15	=15
1iv	A:min	29.423	.	guitar	1A 1cc 1ee
=16	=16	=16	=16	=16	=16
2-VI	C:maj	31.477	.	guitar	2C- 2e- 2g-
2V	B:maj	32.504	.	guitar	2B 2dd# 2ff#
=17	=17	=17	=17	=17	=17
1i	E:min	33.531	newline	voice	1E 1g 1b
=18	=18	=18	=18	=18	=18
1-III	G:maj	35.468	.	voice	1G- 1b- 1dd-
=19	=19	=19	=19	=19	=19
1iv	A:min	37.406	.	voice	1A 1cc 1ee
=20	=20	=20	=20	=20	=20
2-VI	C:maj	39.343	.	voice	2C- 2e- 2g-
2V	B:maj	40.312	.	voice	2B 2dd# 2ff#
=21	=21	=21	=21	=21	=21
1i	E:min	41.28	newline	guitar	1E 1g 1b
=22	=22	=22	=22	=22	=22
1-III	G:maj	43.318	.	guitar	1G- 1b- 1dd-
=23	=23	=23	=23	=23	=23
1iv	A:min	45.356	.	guitar	1A 1cc 1ee
=24	=24	=24	=24	=24	=24
2-VI	C:maj	47.394	.	guitar	2C- 2e- 2g-
2V	B:maj	48.413	.	guitar	2B 2dd# 2ff#
=25	=25	=25	=25	=25	=25
*>C_chorus	*>C_chorus	*>C_chorus	*>C_chorus	*>C_chorus	*>C_chorus
1i	E:min	49.432	newline	voice	1E 1g 1b
=26	=26	=26	=26	=26	=26
1-III	G:maj	51.495	.	voice	1G- 1b- 1dd-
=27	=27	=27	=27	=27	=27
1iv	A:min	53.559	.	voice	1A 1cc 1ee
=28	=28	=28	=28	=28	=28
2-VI	C:maj	55.623	.	voice	2C- 2e- 2g-
2V7	B:7	56.655	.	voice	2B 2dd# 2ff# 2aa
=29	=29	=29	=29	=29	=29
1i	E:min	57.686	newline	voice	1E 1g 1b
=30	=30	=30	=30	=30	=30
1-III	G:maj	59.781	.	voice	1G- 1b- 1dd-
=31	=31	=31	=31	=31	=31
1iv	A:min	61.876	.	voice	1A 1cc 1ee
=32	=32	=32	=32	=32	=32
2-VI	C:maj	63.971	.	voice	2C- 2e- 2g-
2V7	B:7	65.018	.	voice	2B 2dd# 2ff# 2aa
=33	=33	=33	=33	=33	=33
1i	E:min	66.065	newline	guitar	1E 1g 1b
=34	=34	=34	=34	=34	=34
1-III	G:maj	68.102	.	guitar	1G- 1b- 1dd-
=35	=35	=35	=35	=35	=35
1iv	A:min	70.138	.	guitar	1A 1cc 1ee
=36	=36	=36	=36	=36	=36
2-VI	C:maj	72.175	.	guitar	2C- 2e- 2g-
2V7	B:7	73.193	.	guitar	2B 2dd# 2ff# 2aa
=37	=37	=37	=37	=37	=37
*>B_verse	*>B_verse	*>B_verse	*>B_verse	*>B_verse	*>B_verse
1i	E:min	74.211	newline	voice	1E 1g 1b
=38	=38	=38	=38	=38	=38
1-III	G:maj	76.144	.	voice	1G- 1b- 1dd-
=39	=39	=39	=39	=39	=39
1iv	A:min	78.077	.	voice	1A 1cc 1ee
=40	=40	=40	=40	=40	=40
2-VI	C:maj	80.009	.	voice	2C- 2e- 2g-
2V	B:maj	80.976	.	voice	2B 2dd# 2ff#
=41	=41	=41	=41	=41	=41
1i	E:min	81.942	newline	guitar	1E 1g 1b
=42	=42	=42	=42	=42	=42
1-III	G:maj	83.984	.	guitar	1G- 1b- 1dd-
=43	=43	=43	=43	=43	=43
1iv	A:min	86.026	.	guitar	1A 1cc 1ee
=44	=44	=44	=44	=44	=44
2-VI	C:maj	88.067	.	guitar	2C- 2e- 2g-
2V	B:maj	89.088	.	guitar	2B 2dd# 2ff#
=45	=45	=45	=45	=45	=45
1i	E:min	90.109	newline	voice	1E 1g 1b
=46	=46	=46	=46	=46	=46
1-III	G:maj	92.038	.	voice	1G- 1b- 1dd-
=47	=47	=47	=47	=47	=47
1iv	A:min	93.967	.	voice	1A 1cc 1ee
=48	=48	=48	=48	=48	=48
2-VI	C:maj	95.896	.	voice	2C- 2e- 2g-
2V	B:maj	96.861	.	voice	2B 2dd# 2ff#
=49	=49	=49	=49	=49	=49
1i	E:min	97.825	newline	guitar	1E 1g 1b
=50	=50	=50	=50	=50	=50
1-III	G:maj	99.884	.	guitar	1G- 1b- 1dd-
=51	=51	=51	=51	=51	=51
1iv	A:min	101.942	.	guitar	1A 1cc 1ee
=52	=52	=52	=52	=52	=52
2-VI	C:maj	104	.	guitar	2C- 2e- 2g-
2V	B:maj	105.03	.	guitar	2B 2dd# 2ff#
=53	=53	=53	=53	=53	=53
*>C_chorus	*>C_chorus	*>C_chorus	*>C_chorus	*>C_chorus	*>C_chorus
1i	E:min	106.059	newline	voice	1E 1g 1b
=54	=54	=54	=54	=54	=54
1-III	G:maj	108.108	.	voice	1G- 1b- 1dd-
=55	=55	=55	=55	=55	=55
1iv	A:min	110.158	.	voice	1A 1cc 1ee
=56	=56	=56	=56	=56	=56
2-VI	C:maj	112.207	.	voice	2C- 2e- 2g-
2V7	B:7	113.232	.	voice	2B 2dd# 2ff# 2aa
=57	=57	=57	=57	=57	=57
1i	E:min	114.257	newline	voice	1E 1g 1b
=58	=58	=58	=58	=58	=58
1-III	G:maj	116.353	.	voice	1G- 1b- 1dd-
=59	=59	=59	=59	=59	=59
1iv	A:min	118.448	.	voice	1A 1cc 1ee
=60	=60	=60	=60	=60	=60
2-VI	C:maj	120.544	.	voice	2C- 2e- 2g-
2V7	B:7	121.592	.	voice	2B 2dd# 2ff# 2aa
=61	=61	=61	=61	=61	=61
1i	E:min	122.64	newline	guitar	1E 1g 1b
=62	=62	=62	=62	=62	=62
1-III	G:maj	124.671	.	guitar	1G- 1b- 1dd-
=63	=63	=63	=63	=63	=63
1iv	A:min	126.702	.	guitar	1A 1cc 1ee
=64	=64	=64	=64	=64	=64
2-VI	C:maj	128.734	.	guitar	2C- 2e- 2g-
2V7	B:7	129.749	.	guitar	2B 2dd# 2ff# 2aa
=65	=65	=65	=65	=65	=65
*>B2_solo	*>B2_solo	*>B2_solo	*>B2_solo	*>B2_solo	*>B2_solo
1i	E:min	130.765	newline	guitar	1E 1g 1b
=66	=66	=66	=66	=66	=66
1-III	G:maj	132.653	.	guitar	1G- 1b- 1dd-
=67	=67	=67	=67	=67	=67
1iv	A:min	134.542	.	guitar	1A 1cc 1ee
=68	=68	=68	=68	=68	=68
2-VI	C:maj	136.43	.	guitar	2C- 2e- 2g-
2V7	B:7	137.375	.	guitar	2B 2dd# 2ff# 2aa
=69	=69	=69	=69	=69	=69
1i	E:min	138.319	newline	guitar	1E 1g 1b
=70	=70	=70	=70	=70	=70
1-III	G:maj	140.195	.	guitar	1G- 1b- 1dd-
=71	=71	=71	=71	=71	=71
1iv	A:min	142.072	.	guitar	1A 1cc 1ee
=72	=72	=72	=72	=72	=72
2-VI	C:maj	143.948	.	guitar	2C- 2e- 2g-
2V7	B:7	144.887	.	guitar	2B 2dd# 2ff# 2aa
=73	=73	=73	=73	=73	=73
1i	E:min	145.825	newline	guitar	1E 1g 1b
=74	=74	=74	=74	=74	=74
1-III	G:maj	147.737	.	guitar	1G- 1b- 1dd-
=75	=75	=75	=75	=75	=75
1iv	A:min	149.65	.	guitar	1A 1cc 1ee
=76	=76	=76	=76	=76	=76
2-VI	C:maj	151.562	.	guitar	2C- 2e- 2g-
2V7	B:7	152.518	.	guitar	2B 2dd# 2ff# 2aa
=77	=77	=77	=77	=77	=77
1i	E:min	153.474	newline	guitar	1E 1g 1b
=78	=78	=78	=78	=78	=78
1-III	G:maj	155.368	.	guitar	1G- 1b- 1dd-
=79	=79	=79	=79	=79	=79
1iv	A:min	157.261	.	guitar	1A 1cc 1ee
=80	=80	=80	=80	=80	=80
2-VI	C:maj	159.154	.	guitar	2C- 2e- 2g-
2V7	B:7	160.101	.	guitar	2B 2dd# 2ff# 2aa
=81	=81	=81	=81	=81	=81
1i	E:min	161.047	newline	voice	1E 1g 1b
=82	=82	=82	=82	=82	=82
1-III	G:maj	162.97	.	voice	1G- 1b- 1dd-
=83	=83	=83	=83	=83	=83
1iv	A:min	164.892	.	voice	1A 1cc 1ee
=84	=84	=84	=84	=84	=84
2-VI	C:maj	166.815	.	voice	2C- 2e- 2g-
2V7	B:7	167.776	.	voice	2B 2dd# 2ff# 2aa
=85	=85	=85	=85	=85	=85
1i	E:min	168.738	newline	voice	1E 1g 1b
=86	=86	=86	=86	=86	=86
1-III	G:maj	170.641	.	voice	1G- 1b- 1dd-
=87	=87	=87	=87	=87	=87
1iv	A:min	172.544	.	voice	1A 1cc 1ee
=88	=88	=88	=88	=88	=88
2-VI	C:maj	174.447	.	voice	2C- 2e- 2g-
2V7	B:7	175.399	.	voice	2B 2dd# 2ff# 2aa
=89	=89	=89	=89	=89	=89
*>A_interlude	*>A_interlude	*>A_interlude	*>A_interlude	*>A_interlude	*>A_interlude
1i	E:min	176.351	newline	guitar	1E 1g 1b
=90	=90	=90	=90	=90	=90
1-III	G:maj	178.406	.	guitar	1G- 1b- 1dd-
=91	=91	=91	=91	=91	=91
1iv	A:min	180.462	.	guitar	1A 1cc 1ee
=92	=92	=92	=92	=92	=92
2-VI	C:maj	182.518	.	guitar	2C- 2e- 2g-
2V7	B:7	183.546	.	guitar	2B 2dd# 2ff# 2aa
=93	=93	=93	=93	=93	=93
1i	E:min	184.574	newline	guitar	1E 1g 1b
=94	=94	=94	=94	=94	=94
1-III	G:maj	186.657	.	guitar	1G- 1b- 1dd-
=95	=95	=95	=95	=95	=95
1iv	A:min	188.74	.	guitar	1A 1cc 1ee
=96	=96	=96	=96	=96	=96
2-VI	C:maj	190.823	.	guitar	2C- 2e- 2g-
2V7	B:7	191.865	.	guitar	2B 2dd# 2ff# 2aa
=97	=97	=97	=97	=97	=97
*>C2_chorus	*>C2_chorus	*>C2_chorus	*>C2_chorus	*>C2_chorus	*>C2_chorus
1i	E:min	192.906	newline	voice	1E 1g 1b
=98	=98	=98	=98	=98	=98
1-III	G:maj	194.956	.	voice	1G- 1b- 1dd-
=99	=99	=99	=99	=99	=99
1iv	A:min	197.005	.	voice	1A 1cc 1ee
=100	=100	=100	=100	=100	=100
2-VI	C:maj	199.054	.	voice	2C- 2e- 2g-
2V7	B:7	200.079	.	voice	2B 2dd# 2ff# 2aa
=101	=101	=101	=101	=101	=101
1i	E:min	201.104	newline	voice	1E 1g 1b
=102	=102	=102	=102	=102	=102
1-III	G:maj	203.138	.	voice	1G- 1b- 1dd-
=103	=103	=103	=103	=103	=103
1iv	A:min	205.172	.	voice	1A 1cc 1ee
=104	=104	=104	=104	=104	=104
2-VI	C:maj	207.206	.	voice	2C- 2e- 2g-
2V7	B:7	208.223	.	voice	2B 2dd# 2ff# 2aa
=105	=105	=105	=105	=105	=105
1i	E:min	209.24	newline	guitar	1E 1g 1b
=106	=106	=106	=106	=106	=106
1-III	G:maj	211.3	.	guitar	1G- 1b- 1dd-
=107	=107	=107	=107	=107	=107
1iv	A:min	213.359	.	guitar	1A 1cc 1ee
=108	=108	=108	=108	=108	=108
2-VI	C:maj	215.419	.	guitar	2C- 2e- 2g-
2V7	B:7	216.448	.	guitar	2B 2dd# 2ff# 2aa
=109	=109	=109	=109	=109	=109
1i	E:min	217.478	newline	guitar	1E 1g 1b
1r;	N	222.772	.	r	1r;
1r;	N	224.914	.	r	1r;
*-	*-	*-	*-	*-	*-
!!!OTL: I'd Love To Change The World
!!!COC: Ten Years After
!!!BillboardChartDate: 1971/11/13, 1971/10/02
!!!BillboardPeak: 40, 40
!!!BillboardWeeksOnChart: 12, 12
!!!SampleTargetRank: 42, 86
!!!SampleActualRank: 42, 86
!!!SampleID#: 248, 751
!!!RDF**harmony: **recip + pitch class of root + harmonic quality
!!!RDF**harte: Chris Harte's syntax, used by MIREX
!!!RDF**phrase: newline = linebreak in original McGill transcription
!!!RDF**timestamp: McGill audio timestamp in seconds
!!!RDF**leadinstrument: original McGill primary instrumentation annotation
!!!RDT: 2017/01/12/
!!!ENC: Nathaniel Condit-Schultz
!!!EST: Awating manual error checking and editing.
